_includes/icons/ios-shopping-bag.svg

<svg fill="#666" height="50" viewBox="0 0 50 50" width="50" xmlns="http://www.w3.org/2000/svg"><path d="m25 1c-5.535156 0-10 4.464844-10 10v2h-7.90625l-.09375.875-4 35-.125 1.125h44.25l-.125-1.125-4-35-.09375-.875h-7.90625v-2c0-5.535156-4.464844-10-10-10zm0 2c4.464844 0 8 3.535156 8 8v2h-16v-2c0-4.464844 3.535156-8 8-8zm-16.09375 12h6.09375v2.28125c-.597656.347656-1 .980469-1 1.71875 0 1.105469.894531 2 2 2s2-.894531 2-2c0-.738281-.402344-1.371094-1-1.71875v-2.28125h16v2.28125c-.597656.347656-1 .980469-1 1.71875 0 1.105469.894531 2 2 2s2-.894531 2-2c0-.738281-.402344-1.371094-1-1.71875v-2.28125h6.09375l3.78125 33h-39.75z"/></svg>

<svg xmlns="http://www.w3.org/2000/svg" viewBox="0 0 50 50" width="50" height="50" fill="#666"><path d="M 25 1 C 19.464844 1 15 5.464844 15 11 L 15 13 L 7.09375 13 L 7 13.875 L 3 48.875 L 2.875 50 L 47.125 50 L 47 48.875 L 43 13.875 L 42.90625 13 L 35 13 L 35 11 C 35 5.464844 30.535156 1 25 1 Z M 25 3 C 29.464844 3 33 6.535156 33 11 L 33 13 L 17 13 L 17 11 C 17 6.535156 20.535156 3 25 3 Z M 8.90625 15 L 15 15 L 15 17.28125 C 14.402344 17.628906 14 18.261719 14 19 C 14 20.105469 14.894531 21 16 21 C 17.105469 21 18 20.105469 18 19 C 18 18.261719 17.597656 17.628906 17 17.28125 L 17 15 L 33 15 L 33 17.28125 C 32.402344 17.628906 32 18.261719 32 19 C 32 20.105469 32.894531 21 34 21 C 35.105469 21 36 20.105469 36 19 C 36 18.261719 35.597656 17.628906 35 17.28125 L 35 15 L 41.09375 15 L 44.875 48 L 5.125 48 Z"/></svg>
